src/sharedassets/phone_dark/transfert.svg

<?xml version="1.0" encoding="UTF-8" standalone="no"?>
<!-- Created with Inkscape (http://www.inkscape.org/) -->

<svg
   xmlns:dc="http://purl.org/dc/elements/1.1/"
   xmlns:cc="http://creativecommons.org/ns#"
   xmlns:rdf="http://www.w3.org/1999/02/22-rdf-syntax-ns#"
   xmlns:svg="http://www.w3.org/2000/svg"
   xmlns="http://www.w3.org/2000/svg"
   xmlns:xlink="http://www.w3.org/1999/xlink"
   xmlns:sodipodi="http://sodipodi.sourceforge.net/DTD/sodipodi-0.dtd"
   xmlns:inkscape="http://www.inkscape.org/namespaces/inkscape"
   width="24"
   height="24"
   id="svg2"
   sodipodi:version="0.32"
   inkscape:version="0.48.4 r9939"
   version="1.0"
   sodipodi:docname="transfert.svg"
   inkscape:output_extension="org.inkscape.output.svg.inkscape"
   sodipodi:modified="true">
  <title
     id="title3002">transfert.svg</title>
  <defs
     id="defs4">
    <linearGradient
       inkscape:collect="always"
       id="linearGradient2433">
      <stop
         style="stop-color:#008000;stop-opacity:1;"
         offset="0"
         id="stop2435" />
      <stop
         style="stop-color:#008000;stop-opacity:0;"
         offset="1"
         id="stop2437" />
    </linearGradient>
    <inkscape:perspective
       sodipodi:type="inkscape:persp3d"
       inkscape:vp_x="0 : 12 : 1"
       inkscape:vp_y="0 : 1000 : 0"
       inkscape:vp_z="24 : 12 : 1"
       inkscape:persp3d-origin="12 : 8 : 1"
       id="perspective32" />
    <linearGradient
       id="linearGradient4269">
      <stop
         style="stop-color:#26b000;stop-opacity:1;"
         offset="0"
         id="stop4271" />
      <stop
         style="stop-color:#26b000;stop-opacity:0;"
         offset="1"
         id="stop4273" />
    </linearGradient>
    <linearGradient
       id="linearGradient4183">
      <stop
         id="stop4185"
         offset="0"
         style="stop-color:#26b000;stop-opacity:1;" />
      <stop
         id="stop4187"
         offset="1"
         style="stop-color:#145f00;stop-opacity:1;" />
    </linearGradient>
    <linearGradient
       id="linearGradient4167">
      <stop
         style="stop-color:#80000e;stop-opacity:1;"
         offset="0"
         id="stop4169" />
      <stop
         style="stop-color:#b00014;stop-opacity:0;"
         offset="1"
         id="stop4171" />
    </linearGradient>
    <linearGradient
       inkscape:collect="always"
       xlink:href="#linearGradient2433"
       id="linearGradient2439"
       x1="2.965755"
       y1="-0.80084854"
       x2="32.578228"
       y2="16.739393"
       gradientUnits="userSpaceOnUse" />
  </defs>
  <sodipodi:namedview
     id="base"
     pagecolor="#ffffff"
     bordercolor="#666666"
     borderopacity="1.0"
     inkscape:pageopacity="0.0"
     inkscape:pageshadow="2"
     inkscape:zoom="22.627417"
     inkscape:cx="-0.67971919"
     inkscape:cy="13.786304"
     inkscape:document-units="px"
     inkscape:current-layer="layer1"
     width="32px"
     height="32px"
     showguides="true"
     inkscape:guide-bbox="true"
     inkscape:window-width="1313"
     inkscape:window-height="744"
     inkscape:window-x="337"
     inkscape:window-y="1224"
     showgrid="false"
     inkscape:window-maximized="1" />
  <metadata
     id="metadata7">
    <rdf:RDF>
      <cc:Work
         rdf:about="">
        <dc:format>image/svg+xml</dc:format>
        <dc:type
           rdf:resource="http://purl.org/dc/dcmitype/StillImage" />
        <dc:title>transfert.svg</dc:title>
        <dc:date>2014/06/24</dc:date>
        <dc:creator>
          <cc:Agent>
            <dc:title>Gabrielle Maheux-Leclerc &lt;gabrielle.maheux@savoirfairelinux.com&gt;</dc:title>
          </cc:Agent>
        </dc:creator>
        <dc:rights>
          <cc:Agent>
            <dc:title>Savoir-faire Linux Inc.</dc:title>
          </cc:Agent>
        </dc:rights>
        <dc:publisher>
          <cc:Agent>
            <dc:title>Savoir-faire Linux Inc.</dc:title>
          </cc:Agent>
        </dc:publisher>
        <dc:source>http://sflphone.org/download/source-code</dc:source>
        <dc:subject>
          <rdf:Bag>
            <rdf:li>gnome</rdf:li>
            <rdf:li>voip</rdf:li>
            <rdf:li>sip</rdf:li>
          </rdf:Bag>
        </dc:subject>
        <dc:coverage>SFLphone project</dc:coverage>
        <cc:license
           rdf:resource="http://creativecommons.org/licenses/by-sa/3.0/" />
      </cc:Work>
      <cc:License
         rdf:about="http://creativecommons.org/licenses/by-sa/3.0/">
        <cc:permits
           rdf:resource="http://creativecommons.org/ns#Reproduction" />
        <cc:permits
           rdf:resource="http://creativecommons.org/ns#Distribution" />
        <cc:requires
           rdf:resource="http://creativecommons.org/ns#Notice" />
        <cc:requires
           rdf:resource="http://creativecommons.org/ns#Attribution" />
        <cc:permits
           rdf:resource="http://creativecommons.org/ns#DerivativeWorks" />
        <cc:requires
           rdf:resource="http://creativecommons.org/ns#ShareAlike" />
      </cc:License>
    </rdf:RDF>
  </metadata>
  <g
     inkscape:label="Calque 1"
     inkscape:groupmode="layer"
     id="layer1">
    <rect
       style="color:#bebebe;fill:none;stroke:none;stroke-width:1;marker:none;visibility:visible;display:inline;overflow:visible"
       id="rect44095-0-2"
       width="27.25"
       height="27.25"
       x="-25.687498"
       y="-27.12499"
       inkscape:label="a"
       transform="scale(-1,-1)" />
    <rect
       style="color:#bebebe;fill:none;stroke:none;stroke-width:1;marker:none;visibility:visible;display:inline;overflow:visible"
       id="rect44095-0"
       width="27.357903"
       height="27.357903"
       x="-1.6802465"
       y="-4.3527112"
       inkscape:label="a" />
    <rect
       inkscape:label="a"
       y="-18.073694"
       x="-1.6802227"
       height="27.402094"
       width="27.402094"
       id="rect44122-0"
       style="color:#bebebe;fill:none;stroke:none;stroke-width:1;marker:none;visibility:visible;display:inline;overflow:visible" />
    <path
       inkscape:connector-curvature="0"
       id="path44084-2-0"
       d="m 16.029921,21.423862 c 0.254848,-1.219754 -0.510198,-2.362984 -1.146134,-3.339955 -0.742963,-0.978503 -1.568402,-1.994204 -2.707712,-2.518854 -0.356634,-0.09662 -0.648954,0.300579 -0.978359,0.419881 -0.856281,0.556767 -2.0622429,1.043172 -2.9637706,0.301789 C 7.1058138,15.280153 6.5732432,13.807679 5.7598696,12.563649 5.189408,11.579726 4.3969237,10.303434 5.1700028,9.2129354 5.7515946,8.4063694 6.7216293,8.0998704 7.4738192,7.5510554 7.6584188,6.5623256 7.2860419,5.5466087 7.006723,4.6032864 6.5319164,3.3631272 5.8950609,2.0397499 4.7242153,1.3222893 3.771279,0.82956144 2.9428394,1.7471716 2.2338636,2.2619178 0.60384202,3.5856661 -0.14465393,5.7500489 0.03357399,7.8098564 0.29734291,11.121098 1.8791983,14.156312 3.6190376,16.922175 c 1.594147,2.392713 3.5703332,4.79904 6.3613607,5.798852 1.9639747,0.698846 4.2279967,0.209183 5.8754887,-1.006925 l 0.103075,-0.139047 0.07098,-0.151144 z"
       style="fill:#545454;fill-opacity:1;stroke:none;display:inline;enable-background:new" />
    <path
       style="font-size:medium;font-style:normal;font-variant:normal;font-weight:normal;font-stretch:normal;text-indent:0;text-align:start;text-decoration:none;line-height:normal;letter-spacing:normal;word-spacing:normal;text-transform:none;direction:ltr;block-progression:tb;writing-mode:lr-tb;text-anchor:start;color:#000000;fill:#4b8bc5;fill-opacity:1;stroke:none;stroke-width:2;marker:none;visibility:visible;display:inline;overflow:visible;enable-background:accumulate;font-family:Bitstream Vera Sans;-inkscape-font-specification:Bitstream Vera Sans"
       d="m 18.938577,9.4521606 1.010591,0 c 0.26813,-3.22e-5 0.536212,-0.094013 0.726379,-0.2842282 l 3.031772,-3.0317886 0.284244,-0.2842282 0,-0.884269 L 23.707319,4.6834185 20.675531,1.6516459 C 20.485364,1.4614307 20.217266,1.36745 19.949168,1.36745 l -1.010591,-1.61e-5 0,1.0106069 c -4.8e-5,0.268114 0.09401,0.5362118 0.28418,0.7263788 l 2.305426,2.3054098 -2.30541,2.3054099 C 19.032622,7.9054062 18.938545,8.1735041 18.938545,8.441618 l -1.6e-5,1.0105909 z"
       id="path3613-6-6-8-9"
       inkscape:connector-curvature="0" />
    <path
       sodipodi:nodetypes="cssc"
       inkscape:connector-curvature="0"
       id="path35770-7-4"
       d="m 13.885606,10.462752 0,-2.5264857 c 0,-1.3953356 1.13115,-2.5264852 2.526486,-2.5264852 l 5.558274,0"
       style="color:#000000;fill:none;stroke:#4b8bc5;stroke-width:2.02118896999999986;stroke-linecap:butt;stroke-linejoin:miter;stroke-miterlimit:4;stroke-opacity:1;stroke-dashoffset:0;marker:none;visibility:visible;display:inline;overflow:visible;enable-background:accumulate" />
  </g>
</svg>

<svg xmlns="http://www.w3.org/2000/svg" width="24" height="24" version="1"><path style="marker:none" color="#bebebe" fill="none" overflow="visible" d="M25.687 27.125h-27.25V-.125h27.25z"/><path style="marker:none" color="#bebebe" fill="none" overflow="visible" d="M-1.68-4.353h27.358v27.358H-1.68z"/><path style="marker:none" color="#bebebe" fill="none" overflow="visible" d="M-1.68-18.074h27.402V9.328H-1.68z"/><path d="M16.03 21.424c.255-1.22-.51-2.363-1.146-3.34-.743-.979-1.569-1.994-2.708-2.519-.357-.097-.649.3-.978.42-.857.557-2.063 1.043-2.964.302-1.128-1.007-1.66-2.48-2.474-3.723-.57-.984-1.363-2.26-.59-3.351.582-.807 1.552-1.113 2.304-1.662.184-.989-.188-2.004-.467-2.948-.475-1.24-1.112-2.563-2.283-3.28-.953-.493-1.781.424-2.49.939C.604 3.586-.145 5.75.034 7.81c.263 3.311 1.845 6.346 3.585 9.112 1.594 2.393 3.57 4.8 6.361 5.799 1.964.699 4.228.21 5.876-1.007l.103-.139.07-.151z" fill="#545454"/><path style="text-indent:0;text-align:start;line-height:normal;text-transform:none;block-progression:tb;marker:none;-inkscape-font-specification:Bitstream Vera Sans" d="M18.939 9.452h1.01c.268 0 .536-.094.727-.284l3.031-3.032.285-.284v-.884l-.285-.285-3.031-3.031a1.025 1.025 0 0 0-.727-.285h-1.01v1.011c0 .268.094.536.284.726l2.305 2.306-2.305 2.305c-.19.19-.284.459-.284.727v1.01z" font-weight="400" color="#000" fill="#4b8bc5" overflow="visible" font-family="Bitstream Vera Sans"/><path d="M13.886 10.463V7.936a2.526 2.526 0 0 1 2.526-2.526h5.558" style="marker:none" color="#000" fill="none" stroke="#4b8bc5" stroke-width="2.021" overflow="visible"/></svg>
